build/category/BarChartPlusSolid.svg

<svg xmlns="http://www.w3.org/2000/svg" fill="none" viewBox="0 0 24 24" focusable="false"><path d="M0 0H24V24H0z" transform="matrix(1 0 0 -1 0 24)"/><path fill="#74767B" fill-rule="evenodd" d="M4.85142 20L4.85142 19.9947L4.02988 19.9947C3.6709 19.9947 3.37988 19.7037 3.37988 19.3447C3.37988 18.9857 3.6709 18.6947 4.02988 18.6947L4.85142 18.6947L4.85142 8.97522C4.85142 7.8989 5.72395 7.02637 6.80027 7.02637C7.87659 7.02637 8.74912 7.8989 8.74912 8.97522L8.74912 18.6947L10.0492 18.6947L10.0492 11.9968C10.0492 10.9199 10.9222 10.0469 11.9991 10.0469C13.076 10.0469 13.949 10.9199 13.949 11.9968L13.949 18.6947L15.2489 18.6947L15.2489 5.94992C15.2489 4.87301 16.1219 4 17.1988 4C18.2757 4 19.1487 4.87301 19.1487 5.94992L19.1487 18.6947L19.9952 18.6947C20.3541 18.6947 20.6452 18.9857 20.6452 19.3447C20.6452 19.7037 20.3541 19.9947 19.9952 19.9947L19.1466 19.9947L19.1466 20L15.2489 20L15.2489 19.9947L13.9469 19.9947L13.9469 20L10.0492 20L10.0492 19.9947L8.74912 19.9947L8.74912 20L4.85142 20ZM16.5489 12.8438L17.8487 12.8438L17.8487 5.94992C17.8487 5.59098 17.5577 5.3 17.1988 5.3C16.8399 5.3 16.5489 5.59098 16.5489 5.94992L16.5489 12.8438ZM11.3492 11.9968L11.3492 15.9775L12.649 15.9775L12.649 11.9968C12.649 11.6379 12.358 11.3469 11.9991 11.3469C11.6401 11.3469 11.3492 11.6379 11.3492 11.9968ZM6.15142 11.7158L7.44912 11.7158L7.44912 8.97522C7.44912 8.61687 7.15862 8.32637 6.80027 8.32637C6.44192 8.32637 6.15142 8.61687 6.15142 8.97522L6.15142 11.7158Z"/></svg>

<svg xmlns="http://www.w3.org/2000/svg" fill="none" viewBox="0 0 24 24" focusable="false"><path fill="#74767B" fill-rule="evenodd" d="M4.85 20v-.01h-.83c-.35 0-.65-.29-.65-.65s.3-.65.65-.65h.83V8.97a1.946 1.946 0 1 1 3.89 0v9.72h1.3v-6.7c0-1.08.88-1.95 1.95-1.95 1.08 0 1.95.87 1.95 1.95v6.7h1.3V5.94a1.95 1.95 0 0 1 3.9 0v12.75h.85c.36 0 .65.29.65.65s-.29.65-.65.65h-.85V20h-3.9v-.01h-1.3V20h-3.9v-.01h-1.3V20zm11.69-7.16h1.3v-6.9c0-.35-.29-.65-.65-.65s-.65.3-.65.65zm-5.2-.85v3.98h1.3v-3.98c0-.36-.29-.65-.65-.65-.35 0-.65.29-.65.65m-5.19-.28h1.29V8.97c0-.36-.29-.65-.64-.65-.36 0-.65.29-.65.65z"/></svg>
